X:1
T:Gregorian
T:Gregorian
T:Lowell Mason, 1824
T:Public Domain Courtesy of the Cyber Hymnal™
C:Lowell Mason, 1824
Z:Public Domain
Z:Courtesy of the Cyber Hymnal™
%%score ( 1 2 ) ( 3 4 )
L:1/8
M:none
K:Eb
V:1 treble 
V:2 treble 
V:3 bass 
V:4 bass 
V:1
 [EG]8 | [DF]4 [EG]2 [EG]2 | [FA]4 [EG]2 [DF]2 | [EG]8 | [EG]8 | [DF]4 E2 E2 | [EF]4 G2 F2 | E8 | %8
 [EG]8 | [DF]4 [EG]4 | [FA]4 [EG]2 [DF]2 | [EG]8 | [EG]8 | [DF]4 E4 | [EF]4 [DG]2 [DF]2 | E2 E6 | %16
 [EG]8 | [DF]4 [EG]4 | [FA]4 [EG]2 [DF]2 | [EG]2 [EG]6 | [EG]8 | [DF]4 E4 | [EF]4 G2 F2 | E12 |] %24
V:2
 x8 | x8 | x8 | x8 | x8 | x8 | x4 D4 | x8 | x8 | x8 | x8 | x8 | x8 | x8 | x8 | x8 | x8 | x8 | x8 | %19
 x8 | x8 | x8 | x4 D4 | x12 |] %24
V:3
 [E,B,]8 | [B,,B,]4 [E,B,]2 [E,B,]2 | [A,,C]4 [B,,B,]4 | [E,B,]8 | [E,B,]8 | %5
 [B,,B,]4 [C,G,]2 [C,G,]2 | [A,,C]4 B,2 A,2 | [E,G,]8 | [E,B,]8 | B,8 | [A,,C]4 [B,,B,]4 | %11
 [E,B,]8 | [E,B,]8 | [B,,B,]4 [C,G,]4 | [A,,C]4 [B,,B,]2 [B,,A,]2 | [E,G,]2 [E,G,]6 | [E,B,]8 | %17
 [B,,B,]4 [E,B,]4 | [A,,C]4 [B,,B,]4 | [E,B,]2 [E,B,]6 | [E,B,]8 | [B,,B,]4 [C,G,]4 | %22
 [A,,C]4 B,2 A,2 | [E,G,]12 |] %24
V:4
 x8 | x8 | x8 | x8 | x8 | x8 | x4 C,4 | x8 | x8 | B,,4 E,4 | x8 | x8 | x8 | x8 | x8 | x8 | x8 | %17
 x8 | x8 | x8 | x8 | x8 | x4 B,,4 | x12 |] %24

